Papirus-GTK/48x48/apps/airvpn.svg

<svg height="48" viewBox="0 0 48 48.000001" width="48" xmlns="http://www.w3.org/2000/svg"><circle cx="24" cy="23.999983" fill="#006680" r="20"/><path d="m21.524809 16c-3.236044 0-5.859376 2.639661-5.859376 5.895891.0045.148727.01516.295159.03142.439195-.266615-.0539-.545368-.09682-.837478-.126868-3.236044 0-5.8593752 2.639661-5.8593752 5.895891 0 3.25623 2.6233312 5.895891 5.8593752 5.895891h18.28125c3.236043 0 5.859375-2.639661 5.859375-5.895891 0-3.25623-2.623332-5.895891-5.859375-5.895891-.645471.01996-1.247136.155415-1.797867.382798-.820339-1.045483-2.091088-1.716652-3.517685-1.716652-.181345.01-.355677.01597-.523682.03094-.468339-2.784395-2.876163-4.905008-5.776576-4.905008z" opacity=".2"/><path d="m21.524809 15c-3.236044 0-5.859376 2.639661-5.859376 5.895891.0045.148727.01516.295159.03142.439195-.266615-.0539-.545368-.09682-.837478-.126868-3.236044 0-5.8593752 2.639661-5.8593752 5.895891 0 3.25623 2.6233312 5.895891 5.8593752 5.895891h18.28125c3.236043 0 5.859375-2.639661 5.859375-5.895891 0-3.25623-2.623332-5.895891-5.859375-5.895891-.645471.01996-1.247136.155415-1.797867.382798-.820339-1.045483-2.091088-1.716652-3.517685-1.716652-.181345.01-.355677.01597-.523682.03094-.468339-2.784395-2.876163-4.905008-5.776576-4.905008z" fill="#fff"/><path d="m24 44a20 20 0 0 1 -19.859375-17.8516 20 18.999983 0 0 0  19.859375 16.8516 20 18.999983 0 0 0  19.921875-17.4473 20 20 0 0 1 -19.921875 18.4473zm19.921875-18.4473a20 20 0 0 0  .078125-1.5527 20 18.999983 0 0 1 -.07813 1.5527zm-39.78125.5957a20 18.999983 0 0 1 -.048828-.3925 20 20 0 0 0  .048828.3925zm-.048828-.3925a20 20 0 0 1 -.091797-1.7559 20 18.999983 0 0 0  .091797 1.7559z" opacity=".3"/><path d="m24 4a20 20 0 0 0 -19.859375 17.8516 20 18.999983 0 0 1  19.859375-16.8516 20 18.999983 0 0 1  19.921875 17.4473 20 20 0 0 0 -19.921875-18.4473zm19.921875 18.4473a20 20 0 0 1  .07813 1.5527 20 18.999983 0 0 0 -.07813-1.5527zm-39.78125-.5957a20 18.999983 0 0 0 -.048828.3925 20 20 0 0 1  .048828-.3925zm-.048828.3925a20 20 0 0 0 -.091797 1.7559 20 18.999983 0 0 1  .091797-1.7559z" fill="#fff" opacity=".2"/></svg>

<?xml version="1.0" encoding="UTF-8" standalone="no"?>
<svg
   xmlns:dc="http://purl.org/dc/elements/1.1/"
   xmlns:cc="http://creativecommons.org/ns#"
   xmlns:rdf="http://www.w3.org/1999/02/22-rdf-syntax-ns#"
   xmlns:svg="http://www.w3.org/2000/svg"
   xmlns="http://www.w3.org/2000/svg"
   xmlns:sodipodi="http://sodipodi.sourceforge.net/DTD/sodipodi-0.dtd"
   xmlns:inkscape="http://www.inkscape.org/namespaces/inkscape"
   version="1.1"
   id="svg4261"
   viewBox="0 0 48 48.000001"
   height="48"
   width="48"
   inkscape:version="0.91 r13725"
   sodipodi:docname="airvpn.svg">
  <sodipodi:namedview
     pagecolor="#ffffff"
     bordercolor="#666666"
     borderopacity="1"
     objecttolerance="10"
     gridtolerance="10"
     guidetolerance="10"
     inkscape:pageopacity="0"
     inkscape:pageshadow="2"
     inkscape:window-width="1600"
     inkscape:window-height="849"
     id="namedview13"
     showgrid="false"
     inkscape:zoom="4.97"
     inkscape:cx="-8.3389831"
     inkscape:cy="24"
     inkscape:window-x="0"
     inkscape:window-y="0"
     inkscape:window-maximized="1"
     inkscape:current-layer="svg4261" />
  <defs
     id="defs4263" />
  <metadata
     id="metadata4266">
    <rdf:RDF>
      <cc:Work
         rdf:about="">
        <dc:format>image/svg+xml</dc:format>
        <dc:type
           rdf:resource="http://purl.org/dc/dcmitype/StillImage" />
        <dc:title></dc:title>
      </cc:Work>
    </rdf:RDF>
  </metadata>
  <circle
     style="opacity:1;fill:#006680;fill-opacity:1;stroke:none;stroke-width:0.2;stroke-miterlimit:4;stroke-dasharray:none;stroke-opacity:1"
     id="path4136"
     cx="24"
     cy="23.999983"
     r="20" />
  <path
     style="opacity:0.2;fill:#000000;fill-opacity:1;stroke:none;stroke-width:2;stroke-miterlimit:4;stroke-dasharray:none;stroke-opacity:1"
     d="m 21.524809,16 c -3.236044,0 -5.859376,2.639661 -5.859376,5.895891 0.0045,0.148727 0.01516,0.295159 0.03142,0.439195 -0.266615,-0.0539 -0.545368,-0.09682 -0.837478,-0.126868 -3.236044,0 -5.8593752,2.639661 -5.8593752,5.895891 0,3.25623 2.6233312,5.895891 5.8593752,5.895891 l 18.28125,0 C 36.376668,34 39,31.360339 39,28.104109 c 0,-3.25623 -2.623332,-5.895891 -5.859375,-5.895891 -0.645471,0.01996 -1.247136,0.155415 -1.797867,0.382798 -0.820339,-1.045483 -2.091088,-1.716652 -3.517685,-1.716652 -0.181345,0.01 -0.355677,0.01597 -0.523682,0.03094 -0.468339,-2.784395 -2.876163,-4.905008 -5.776576,-4.905008 z"
     id="path4148"
     inkscape:connector-curvature="0" />
  <path
     inkscape:connector-curvature="0"
     id="path4163"
     d="m 21.524809,15 c -3.236044,0 -5.859376,2.639661 -5.859376,5.895891 0.0045,0.148727 0.01516,0.295159 0.03142,0.439195 -0.266615,-0.0539 -0.545368,-0.09682 -0.837478,-0.126868 -3.236044,0 -5.8593752,2.639661 -5.8593752,5.895891 0,3.25623 2.6233312,5.895891 5.8593752,5.895891 l 18.28125,0 C 36.376668,33 39,30.360339 39,27.104109 c 0,-3.25623 -2.623332,-5.895891 -5.859375,-5.895891 -0.645471,0.01996 -1.247136,0.155415 -1.797867,0.382798 -0.820339,-1.045483 -2.091088,-1.716652 -3.517685,-1.716652 -0.181345,0.01 -0.355677,0.01597 -0.523682,0.03094 -0.468339,-2.784395 -2.876163,-4.905008 -5.776576,-4.905008 z"
     style="opacity:1;fill:#ffffff;fill-opacity:1;stroke:none;stroke-width:2;stroke-miterlimit:4;stroke-dasharray:none;stroke-opacity:1" />
  <path
     inkscape:connector-curvature="0"
     style="opacity:0.3;fill:#000000;fill-opacity:1;stroke:none;stroke-width:0.2;stroke-miterlimit:4;stroke-dasharray:none;stroke-opacity:1"
     d="M 24,44 A 20,20 0 0 1 4.140625,26.1484 20,18.999983 0 0 0 24,43 20,18.999983 0 0 0 43.921875,25.5527 20,20 0 0 1 24,44 Z M 43.921875,25.5527 A 20,20 0 0 0 44,24 20,18.999983 0 0 1 43.92187,25.5527 Z M 4.140625,26.1484 A 20,18.999983 0 0 1 4.091797,25.7559 20,20 0 0 0 4.140625,26.1484 Z M 4.091797,25.7559 A 20,20 0 0 1 4,24 20,18.999983 0 0 0 4.091797,25.7559 Z"
     id="circle4166" />
  <path
     inkscape:connector-curvature="0"
     id="path4174"
     d="M 24,4 A 20,20 0 0 0 4.140625,21.8516 20,18.999983 0 0 1 24,5 20,18.999983 0 0 1 43.921875,22.4473 20,20 0 0 0 24,4 Z M 43.921875,22.4473 A 20,20 0 0 1 44.000005,24 20,18.999983 0 0 0 43.921875,22.4473 Z M 4.140625,21.8516 A 20,18.999983 0 0 0 4.091797,22.2441 20,20 0 0 1 4.140625,21.8516 Z M 4.091797,22.2441 A 20,20 0 0 0 4,24 20,18.999983 0 0 1 4.091797,22.2441 Z"
     style="opacity:0.2;fill:#ffffff;fill-opacity:1;stroke:none;stroke-width:0.2;stroke-miterlimit:4;stroke-dasharray:none;stroke-opacity:1" />
</svg>
